src/Plugin/LegacyEditor/Admin/resources/css/jsToolBar/bt_ins.svg

<svg viewBox="0 0 15 15" fill="none" xmlns="http://www.w3.org/2000/svg">
  <path
    fill-rule="evenodd"
    clip-rule="evenodd"
    d="M5.00001 2.75C5.00001 2.47386 4.77615 2.25 4.50001 2.25C4.22387 2.25 4.00001 2.47386 4.00001 2.75V8.05C4.00001 9.983 5.56702 11.55 7.50001 11.55C9.43301 11.55 11 9.983 11 8.05V2.75C11 2.47386 10.7762 2.25 10.5 2.25C10.2239 2.25 10 2.47386 10 2.75V8.05C10 9.43071 8.88072 10.55 7.50001 10.55C6.1193 10.55 5.00001 9.43071 5.00001 8.05V2.75ZM3.49998 13.1001C3.27906 13.1001 3.09998 13.2791 3.09998 13.5001C3.09998 13.721 3.27906 13.9001 3.49998 13.9001H11.5C11.7209 13.9001 11.9 13.721 11.9 13.5001C11.9 13.2791 11.7209 13.1001 11.5 13.1001H3.49998Z"
    fill="currentColor"
  />
</svg>

<svg clip-rule="evenodd" fill-rule="evenodd" stroke-linejoin="round" stroke-miterlimit="2" viewBox="0 0 24 24" xmlns="http://www.w3.org/2000/svg"><path d="m151.257 48.925h24.811v26.503h-24.811z" fill="none" transform="matrix(.967316 0 0 .905544 -146.3137 -44.3034)"/><g transform="matrix(1.37338 0 0 1.37338 1.69976 .90992)"><path d="m3.5 13.1c-.221 0-.4.179-.4.4s.179.4.4.4h8c.221 0 .4-.179.4-.4s-.179-.4-.4-.4z" fill="#080" stroke="#080" stroke-width=".73"/><path d="m5 2.75c0-.276-.224-.5-.5-.5s-.5.224-.5.5v5.3c0 1.933 1.567 3.5 3.5 3.5s3.5-1.567 3.5-3.5v-5.3c0-.276-.224-.5-.5-.5s-.5.224-.5.5v5.3c0 1.381-1.119 2.5-2.5 2.5s-2.5-1.119-2.5-2.5z"/></g></svg>
